X:109 
T:Josie McDermott's (reel) 
T:Trip to Birmingham, Pile of Bricks
B:CRE3.169 (Ril Sheosaimh Mhc Dhiamada)
F:file ID: cre.3/109josie_m
R:reel
L:1/8
Q:180
M:C
K:G
DGGD G2 (3B^cd|e3d edBA|G3A DGBG|A3G EDAG|
DGGD G2 (3B^cd|e3d efg2|bgg2 ageg|dBAD G3 z:|
gddf g3a|(3bag ag edBA|G3A DGBG|A2ag edBe|
dggf g3a|b2af edBA|G3A DGBG|AGFA G3 z:|

%%%

